assets/icons/utility/navigate-down.svg

<svg viewBox="0 0 24 24" xmlns="http://www.w3.org/2000/svg"><path d="m11.9932649 19.500812c-.6352342.000819-1.2400333-.2833911-1.65984-.78l-9.41856003-11.15199999c-.61913211-.76859096-.53599584-1.91147321.1872475-2.57410938.72324334-.66263618 1.82204752-.60264878 2.4748325.13510938l8.23584003 9.75199999c.0455704.0541548.1113462.0852092.18048.0852092.0691337 0 .1349096-.0310544.18048-.0852092l8.23584-9.75199999c.4135143-.51333692 1.0615094-.75310007 1.6932379-.626511s1.1480791.59966995 1.3492454 1.2361798c.2011663.63650986.0555875 1.33658731-.3804033 1.8293312l-9.41568 11.14799999c-.4205256.497811-1.0261445.7833703-1.66272.784z" fill-rule="evenodd"/></svg>

<svg xmlns="http://www.w3.org/2000/svg" viewBox="0 0 24 24">
  <path fill-rule="evenodd" d="M11.9932649,19.500812 C11.3580307,19.501631 10.7532316,19.2174209 10.3334249,18.720812 L0.91486487,7.56881201 C0.295732764,6.80022105 0.378869031,5.6573388 1.10211237,4.99470263 C1.82535571,4.33206645 2.92415989,4.39205385 3.57694487,5.12981201 L11.8127849,14.881812 C11.8583553,14.9359668 11.9241311,14.9670212 11.9932649,14.9670212 C12.0623986,14.9670212 12.1281745,14.9359668 12.1737449,14.881812 L20.4095849,5.12981201 C20.8230992,4.61647509 21.4710943,4.37671194 22.1028228,4.50330101 C22.7345513,4.62989008 23.2509019,5.10297096 23.4520682,5.73948081 C23.6532345,6.37599067 23.5076557,7.07606812 23.0716649,7.56881201 L13.6559849,18.716812 C13.2354593,19.214623 12.6298404,19.5001823 11.9932649,19.500812 Z"/>
</svg>
